X:1
T:Title
%%score { ( 1 4 5 ) | ( 2 3 ) }
L:1/8
Q:1/4=100
M:4/4
K:Ab
V:1 treble nm="Grand Piano"
V:4 treble 
V:5 treble 
V:2 bass 
V:3 bass 
V:1
 [CE]2 [CF]>[CA] [CG]2 [CF]2 | [CF]2 [CE]2 [Ec]4 | [A,CE]2 [CF]>[CA] [CG]2 [CF]2 | z4 d4 | %4
w: B.~D.~Ackley * * * *||||
 [EBd]2 [EAc]>[EGB] [E_G=A]2 [E=GB]2 | [EAe]2 [EGd]2 [EAc]2 [E_Gc]2 | [EGB]2 [EG]>[FA] G2 F2 | %7
w: |||
 B6[K:bass] z2[K:treble] | [A,CE]2 [CF]>[CA] [CG]2 [CF]2 | [CF]2 [CE]2 [Ec]4 | %10
w: |||
 [A,CE]2 [CF]>[CA] [CG]2 [CF]2 | z4 d4 | [EBd]2 [EAc]>[EGB] [E_G=A]2 [E=GB]2 | %13
w: |||
 [EAe]2 [EGd]2 [EAc]2 [E_Gc]2 | [EGB]2 [B,EG]>[B,FA] [B,EG]2 [A,=DF]2 | [G,E]6 z2 | c4 z4 | %17
w: ||||
 [Ec]6[K:bass] z2 | d4 [Gd]2 [Fd]2 | [Ed]6 z2 | [Bd]2 [Ac]>[GB] [E_G=A]2 [E=GB]2 | %21
w: ||||
 [EAe]2 [EGd]2 [EAc]2 [E_Gc]2 | [EGB]2 [EG]>A [EG]2 B,>B, | B6[K:bass] z2[K:treble] | c4 z4 | %25
w: ||||
 [Ec]6[K:bass] z2 | d4 [Gd]2 [Fd]2 | [Ed]6 z2 | [Bd]2 [Ac]>[GB] [E_G=A]2 [E=GB]2 | %29
w: ||||
 [EAe]2 [EGd]2 [EAc]2 [Af]2 | [EAe]2 [FAe]>[FAd] [EAc]2 [DEB]2 | [CEA]6 z2 |] %32
w: |||
V:2
 [A,,A,]2 [A,,E,]>[A,,E,] [A,,A,]2 [A,,E,]2 | z4 A,2 z2 | A,,2 [A,,E,]>[A,,E,] [A,,A,]2 [A,,E,]2 | %3
 z4 G,2 z2 | E,2 E,>E, E,2 D,2 | C,2 B,,2 A,,2 =A,,2 | B,,2 [B,,B,]>[B,,B,] [B,E]2 [A,B,=D]2 | %7
 [G,B,E]2 [F,A,]2 [E,G,]2 C,>B,, | A,,2 [A,,E,]>[A,,E,] [A,,A,]2 [A,,E,]2 | z4 A,2 z2 | %10
 A,,2 [A,,E,]>[A,,E,] [A,,A,]2 [A,,E,]2 | z4 G,2 z2 | E,2 E,>E, E,2 D,2 | C,2 B,,2 A,,2 =A,,2 | %14
 B,,2 B,,>B,, B,,2 B,,2 | E,6 z2 | [A,,A,]4 [A,,A,]2 [A,,A,]2 | E,2 z2 z4 | %18
 B,,2- [B,,-F]>[B,,A] B,,2 B,,2 | z2 F,>A, G,2 F,2 | E,2 E,>E, E,2 D,2 | C,2 B,,2 A,,2 =A,,2 | %22
 B,,2 z z/[K:treble] F/ B,2 A,>A, | [G,B,E]2[K:bass] [F,A,]2 [E,G,]2 C,>B,, | %24
 [A,,A,]4 [A,,A,]2 [A,,A,]2 | E,2 z2 z4 | B,,2- [B,,-F]>[B,,A] B,,2 B,,2 | z2 F,>A, G,2 F,2 | %28
 E,2 E,>E, E,2 D,2 | C,2 B,,2 A,,2 [D,D]2 | C,2 D,>D, E,2 E,2 | A,,6 z2 |] %32
V:3
 x8 | [A,,A,]2 [A,,E,]2 A,,2- [A,,E,]2 | x8 | [B,,G,]2 [B,,E,]2 B,,2- [B,,E,]2 | x8 | x8 | x8 | %7
 x8 | x8 | [A,,A,]2 [A,,E,]2 A,,2- [A,,E,]2 | x8 | [B,,G,]2 [B,,E,]2 B,,2- [B,,E,]2 | x8 | x8 | %14
 x8 | z2 D,2 C,2 B,,2 | x8 | A,,6 z2 | E,6 z2 | E,6 z2 | x8 | x8 | z2 [B,,B,]2[K:treble] z4 | %23
 x2[K:bass] x6 | x8 | A,,6 z2 | E,6 z2 | E,6 z2 | x8 | x8 | x8 | x8 |] %32
V:4
 x8 | x8 | x8 | [DF]2 [DE]2 E2 G2 | x8 | x8 | x8 | z4 E2[K:bass] z2[K:treble] | x8 | x8 | x8 | %11
 [DF]2 [DE]2 E2 G2 | x8 | x8 | x8 | x8 | E2 F>A [Gc]2 [Fc]2 | z2[K:bass] F,>A, G,2 F,2 | E2 z2 z4 | %19
 x8 | x8 | x8 | z4 z2 [=DF]2 | z4 E2[K:bass] z2[K:treble] | E2 F>A [Gc]2 [Fc]2 | %25
 z2[K:bass] F,>A, G,2 F,2 | E2 z2 z4 | x8 | x8 | x8 | x8 | x8 |] %32
V:5
 x8 | x8 | x8 | x8 | x8 | x8 | x8 | z2 =D2 z z/[K:bass] D,/ E>[K:treble]_D | x8 | x8 | x8 | x8 | %12
 x8 | x8 | x8 | x8 | x8 | x2[K:bass] x6 | x8 | x8 | x8 | x8 | x8 | %23
 z2 =D2 z z/[K:bass] D,/ E>[K:treble]_D | x8 | x2[K:bass] x6 | x8 | x8 | x8 | x8 | x8 | x8 |] %32

